digital/Imbassy-X-Files/65ef0811cc67439994568a45/65ef0811cc6743999456900e_g2-crowd-vector-logo-2022 1.svg

<svg fill="none" height="88" viewBox="0 0 88 88" width="88" xmlns="http://www.w3.org/2000/svg"><path clip-rule="evenodd" d="m43.3791 77.1214c18.6392 0 33.7423-15.1031 33.7423-33.7423 0-18.6258-15.1031-33.74238-33.7423-33.74238-18.6393 0-33.74238 15.10308-33.74238 33.74238 0 18.6392 15.10308 33.7423 33.74238 33.7423zm5.8846-39.2489h8.719v-2.3889h-5.7631c.1619-.9043.7153-1.4172 1.849-1.9841l1.0663-.5399c1.8896-.9717 2.9018-2.065 2.9018-3.8601 0-1.1202-.4319-2.011-1.3092-2.6589-.8503-.6478-1.8895-.9583-3.0908-.9583-.9582 0-1.8355.243-2.6319.7424-.7828.4993-1.3767 1.1202-1.7411 1.903l1.6736 1.6736c.6479-1.3092 1.5792-1.957 2.8209-1.957 1.0393 0 1.6871.5399 1.6871 1.2822 0 .6209-.3104 1.1472-1.5116 1.7546l-.6749.3374c-1.4846.7559-2.5104 1.6062-3.1043 2.5779-.5938.9583-.8908 2.1865-.8908 3.6712zm-1.5926 2.7534h9.5423l4.7779 8.2601-4.7644 8.2601-4.7779-8.2601h-9.5423zm-14.9546 2.7669c0 6.0736 4.9399 11.0135 11.0135 11.0135 2.7399 0 5.2503-1.0123 7.1669-2.6589l4.184 7.2343c-3.1853 2.3215-7.1129 3.6982-11.3509 3.6982-10.6626 0-19.2871-8.6381-19.2871-19.2871 0-10.6356 8.638-19.2737 19.2871-19.2737 1.2957 0 2.5509.1215 3.7791.3645l-3.7791 7.8957c-6.0736 0-11.0135 4.9398-11.0135 11.0135z" fill="#fff" fill-rule="evenodd"/></svg>

<svg width="88" height="88" viewBox="0 0 88 88" fill="none" xmlns="http://www.w3.org/2000/svg">
<path fill-rule="evenodd" clip-rule="evenodd" d="M43.3791 77.1214C62.0183 77.1214 77.1214 62.0183 77.1214 43.3791C77.1214 24.7533 62.0183 9.63672 43.3791 9.63672C24.7398 9.63672 9.63672 24.7398 9.63672 43.3791C9.63672 62.0183 24.7398 77.1214 43.3791 77.1214ZM49.2637 37.8725H57.9827V35.4836H52.2196C52.3815 34.5793 52.9349 34.0664 54.0686 33.4995L55.1349 32.9596C57.0245 31.9879 58.0367 30.8946 58.0367 29.0995C58.0367 27.9793 57.6048 27.0885 56.7275 26.4406C55.8772 25.7928 54.838 25.4823 53.6367 25.4823C52.6785 25.4823 51.8012 25.7253 51.0048 26.2247C50.222 26.724 49.6281 27.3449 49.2637 28.1277L50.9373 29.8013C51.5852 28.4921 52.5165 27.8443 53.7582 27.8443C54.7975 27.8443 55.4453 28.3842 55.4453 29.1265C55.4453 29.7474 55.1349 30.2737 53.9337 30.8811L53.2588 31.2185C51.7742 31.9744 50.7484 32.8247 50.1545 33.7964C49.5607 34.7547 49.2637 35.9829 49.2637 37.4676V37.8725ZM47.6711 40.6259H57.2134L61.9913 48.886L57.2269 57.1461L52.449 48.886H42.9067L47.6711 40.6259ZM32.7165 43.3928C32.7165 49.4664 37.6564 54.4063 43.73 54.4063C46.4699 54.4063 48.9803 53.394 50.8969 51.7474L55.0809 58.9817C51.8956 61.3032 47.968 62.6799 43.73 62.6799C33.0674 62.6799 24.4429 54.0418 24.4429 43.3928C24.4429 32.7572 33.0809 24.1191 43.73 24.1191C45.0257 24.1191 46.2809 24.2406 47.5091 24.4836L43.73 32.3793C37.6564 32.3793 32.7165 37.3191 32.7165 43.3928Z" fill="white"/>
</svg>
